X: 5936
T: Cameronian, The
R: reel
M: 4/4
K: Dmajor
||A2 FA DAFA|GE~E2 GBdB|A2 FA DAFA|GBAG FDD B|
A ~F3 D~F3|G~E3 GBdB|A2FA DAFA|GBAG FDD F||
|:A ~F3 D~F3|G~E3 GBdB|A2FA DAFA|GBAG FDD B:|
|:Addc dddA|(3Bcd ef gfed|(3cBA eA fAeA|(3Bcd ef gfeg|
faeg faeg|fdec defg|af ge fdec|dBAG FDD B:|

